X: 30079
T: Hame Came Our Gude Man
R: strathspey
B: RSCDS 30-__
B: Athole
B: Gow
B: Skye
Z: 2005 John Chambers <jc:trillian.mit.edu>
M: C
L: 1/16
K: D
B2 \
| "D"A3F A3f "G"e3d Bd3 | "D"A3F A3B "G"d3e d3B \
| "D"A3F A3f "Em"gfed "A"dcBA | "D"A3F "A7"A3B "D"d3e d2y :|
|: a2 \
| "D"f3e d3f "Em"e3d "A7"Ba3 | "D"f3e d3f a3b "A7"a2g2 \
| "D7"f3a "Bm"bagf "Em"gfed "A7"dcBA | "D"A3F "A7"A3B "D"d3e d2y :|
%%center Book30/HameCameOurGudeMan_D-JC.abc

%%sep 1 1 500
%%sep 1 1 500

